blog/2022/05-17-a-walk-in-the-graph/img/droplet_inbound_outbound.svg

<svg xmlns="http://www.w3.org/2000/svg" xmlns:xlink="http://www.w3.org/1999/xlink" width="582" height="100" contentScriptType="application/ecmascript" contentStyleType="text/css" style="width:582px;height:100px;background:#00000000" preserveAspectRatio="none" version="1.1" viewBox="0 0 582 100" zoomAndPan="magnify"><g><rect id="digitalocean_vpc" width="180" height="39.789" x="7" y="19.99" fill="#3D176E" codeLine="20" rx="2.5" ry="2.5" style="stroke:#000d19;stroke-width:1.5"/><ellipse cx="22" cy="39.885" fill="#E98DF7" rx="11" ry="11" style="stroke:#000d19;stroke-width:1"/><path fill="#000" d="M24.9688,45.5252 Q24.3906,45.822 23.75,45.9627 Q23.1094,46.1189 22.4063,46.1189 Q19.9063,46.1189 18.5781,44.4783 Q17.2656,42.822 17.2656,39.697 Q17.2656,36.572 18.5781,34.9158 Q19.9063,33.2595 22.4063,33.2595 Q23.1094,33.2595 23.75,33.4158 Q24.4063,33.572 24.9688,33.8689 L24.9688,36.5877 Q24.3438,36.0095 23.75,35.7439 Q23.1563,35.4627 22.5313,35.4627 Q21.1875,35.4627 20.5,36.5408 Q19.8125,37.6033 19.8125,39.697 Q19.8125,41.7908 20.5,42.8689 Q21.1875,43.9314 22.5313,43.9314 Q23.1563,43.9314 23.75,43.6658 Q24.3438,43.3845 24.9688,42.8064 L24.9688,45.5252 Z"/><text x="41" y="45.77" fill="#D9B8FF" font-family="Helvetica" font-size="17" lengthAdjust="spacing" textLength="138">digitalocean_vpc</text><rect id="digitalocean_droplet" width="211" height="39.789" x="364" y="19.99" fill="#3D176E" codeLine="21" rx="2.5" ry="2.5" style="stroke:#000d19;stroke-width:1.5"/><ellipse cx="379" cy="39.885" fill="#E98DF7" rx="11" ry="11" style="stroke:#000d19;stroke-width:1"/><path fill="#000" d="M381.9688,45.5252 Q381.3906,45.822 380.75,45.9627 Q380.1094,46.1189 379.4063,46.1189 Q376.9063,46.1189 375.5781,44.4783 Q374.2656,42.822 374.2656,39.697 Q374.2656,36.572 375.5781,34.9158 Q376.9063,33.2595 379.4063,33.2595 Q380.1094,33.2595 380.75,33.4158 Q381.4063,33.572 381.9688,33.8689 L381.9688,36.5877 Q381.3438,36.0095 380.75,35.7439 Q380.1563,35.4627 379.5313,35.4627 Q378.1875,35.4627 377.5,36.5408 Q376.8125,37.6033 376.8125,39.697 Q376.8125,41.7908 377.5,42.8689 Q378.1875,43.9314 379.5313,43.9314 Q380.1563,43.9314 380.75,43.6658 Q381.3438,43.3845 381.9688,42.8064 L381.9688,45.5252 Z"/><text x="398" y="45.77" fill="#D9B8FF" font-family="Helvetica" font-size="17" lengthAdjust="spacing" textLength="169">digitalocean_droplet</text><path id="digitalocean_vpc-to-digitalocean_droplet" fill="none" d="M171.17,19.98 C186.21,16.66 202.03,13.73 217,11.99 C268.65,6 282.27,6.67 334,11.99 C349.13,13.55 365.08,16.07 380.49,18.98" codeLine="24" style="stroke:#1a83af;stroke-width:2"/><polygon fill="#1A83AF" points="385.69 19.98 377.608 14.351 380.78 19.035 376.096 22.207 385.69 19.98" style="stroke:#1a83af;stroke-width:2"/><path id="digitalocean_droplet-to-digitalocean_vpc" fill="none" d="M363.89,45.97 C353.79,46.39 343.7,46.74 334,46.99 C282.02,48.35 268.98,48.52 217,46.99 C209.03,46.76 200.77,46.44 192.48,46.06" codeLine="25" style="stroke:#ffaf37;stroke-width:2"/><polygon fill="#FFAF37" points="187.32 45.82 196.115 50.252 192.314 46.063 196.504 42.261 187.32 45.82" style="stroke:#ffaf37;stroke-width:2"/><text x="228" y="38.057" fill="#FFAF37" font-family="Helvetica" font-size="13" lengthAdjust="spacing" textLength="95">step 1 inbound</text><path id="digitalocean_droplet-backto-digitalocean_vpc" fill="none" d="M415.13,61.76 C390.82,70.54 361.41,79.62 334,83.99 C282.65,92.18 268.19,93.15 217,83.99 C190.87,79.32 162.98,69.3 140.76,60" codeLine="26" style="stroke:#ffaf37;stroke-width:2"/><polygon fill="#FFAF37" points="419.92 60.01 410.094 59.336 415.223 61.723 412.836 66.852 419.92 60.01" style="stroke:#ffaf37;stroke-width:2"/><text x="223" y="75.057" fill="#FFAF37" font-family="Helvetica" font-size="13" lengthAdjust="spacing" textLength="105">step 2 outbound</text></g></svg>

<svg xmlns="http://www.w3.org/2000/svg" width="582" height="100" preserveAspectRatio="none" style="width:582px;height:100px;background:#00000000"><rect width="180" height="39.789" x="7" y="19.99" fill="#3D176E" rx="2.5" ry="2.5" style="stroke:#000d19;stroke-width:1.5"/><circle cx="22" cy="39.885" r="11" fill="#E98DF7" style="stroke:#000d19;stroke-width:1"/><path d="M24.969 45.525q-.578.297-1.219.438-.64.156-1.344.156-2.5 0-3.828-1.64-1.312-1.657-1.312-4.782t1.312-4.781q1.328-1.656 3.828-1.656.703 0 1.344.156.656.156 1.219.453v2.719q-.625-.578-1.219-.844-.594-.281-1.219-.281-1.343 0-2.031 1.078-.688 1.062-.688 3.156 0 2.094.688 3.172.688 1.062 2.031 1.062.625 0 1.219-.265.594-.281 1.219-.86v2.72Z"/><text x="41" y="45.77" fill="#D9B8FF" font-family="Helvetica" font-size="17" textLength="138">digitalocean_vpc</text><rect width="211" height="39.789" x="364" y="19.99" fill="#3D176E" rx="2.5" ry="2.5" style="stroke:#000d19;stroke-width:1.5"/><circle cx="379" cy="39.885" r="11" fill="#E98DF7" style="stroke:#000d19;stroke-width:1"/><path d="M381.969 45.525q-.578.297-1.219.438-.64.156-1.344.156-2.5 0-3.828-1.64-1.312-1.657-1.312-4.782t1.312-4.781q1.328-1.656 3.828-1.656.703 0 1.344.156.656.156 1.219.453v2.719q-.625-.578-1.219-.844-.594-.281-1.219-.281-1.344 0-2.031 1.078-.688 1.062-.688 3.156 0 2.094.688 3.172.688 1.062 2.031 1.062.625 0 1.219-.265.594-.281 1.219-.86v2.72Z"/><text x="398" y="45.77" fill="#D9B8FF" font-family="Helvetica" font-size="17" textLength="169">digitalocean_droplet</text><path fill="none" d="M171.17 19.98c15.04-3.32 30.86-6.25 45.83-7.99 51.65-5.99 65.27-5.32 117 0 15.13 1.56 31.08 4.08 46.49 6.99" style="stroke:#1a83af;stroke-width:2"/><path fill="#1A83AF" d="m385.69 19.98-8.082-5.629 3.172 4.684-4.684 3.172 9.594-2.227z" style="stroke:#1a83af;stroke-width:2"/><path fill="none" d="M363.89 45.97c-10.1.42-20.19.77-29.89 1.02-51.98 1.36-65.02 1.53-117 0-7.97-.23-16.23-.55-24.52-.93" style="stroke:#ffaf37;stroke-width:2"/><path fill="#FFAF37" d="m187.32 45.82 8.795 4.432-3.801-4.189 4.19-3.802-9.184 3.559z" style="stroke:#ffaf37;stroke-width:2"/><text x="228" y="38.057" fill="#FFAF37" font-family="Helvetica" font-size="13" textLength="95">step 1 inbound</text><path fill="none" d="M415.13 61.76c-24.31 8.78-53.72 17.86-81.13 22.23-51.35 8.19-65.81 9.16-117 0-26.13-4.67-54.02-14.69-76.24-23.99" style="stroke:#ffaf37;stroke-width:2"/><path fill="#FFAF37" d="m419.92 60.01-9.826-.674 5.129 2.387-2.387 5.129 7.084-6.842z" style="stroke:#ffaf37;stroke-width:2"/><text x="223" y="75.057" fill="#FFAF37" font-family="Helvetica" font-size="13" textLength="105">step 2 outbound</text></svg>
